packages/core/src/svgs/cnfi.svg

<svg width="24" height="24" viewBox="0 0 24 24" fill="none" xmlns="http://www.w3.org/2000/svg">
<g clip-path="url(#clip0_31_8472)">
<path d="M0 0H24V24H0V0Z" fill="url(#paint0_linear_31_8472)"/>
<path d="M11.1428 5.14307C7.75711 5.57164 5.14282 8.47735 5.14282 12.0002C5.14282 15.5231 7.75711 18.4288 11.1428 18.8574V17.0702C9.94562 16.8665 8.85911 16.2457 8.07571 15.3178C7.29232 14.3899 6.86257 13.2146 6.86257 12.0002C6.86257 10.7858 7.29232 9.61057 8.07571 8.68262C8.85911 7.75468 9.94562 7.1339 11.1428 6.93021V5.14307ZM12.8571 18.8574C16.2428 18.4288 18.8571 15.5231 18.8571 12.0002C18.8571 8.47735 16.2428 5.57164 12.8571 5.14307V6.93021C13.5558 7.04832 14.2225 7.30953 14.8154 7.69745C15.4084 8.08538 15.9148 8.59164 16.3028 9.1845C16.3585 9.46307 16.3071 9.87878 15.96 10.1145C15.8008 10.227 15.6106 10.2875 15.4157 10.2875C15.2207 10.2875 15.0306 10.227 14.8714 10.1145V10.1231C14.4705 9.5099 13.8836 9.04128 13.197 8.78591C12.5103 8.53053 11.7599 8.50182 11.0557 8.70398C10.3516 8.90614 9.73066 9.32855 9.28404 9.90929C8.83742 10.49 8.58856 11.1986 8.57395 11.931C8.55933 12.6635 8.77972 13.3814 9.20282 13.9795C9.62592 14.5776 10.2295 15.0244 10.925 15.2545C11.6206 15.4846 12.3715 15.4859 13.0678 15.2581C13.7641 15.0303 14.3692 14.5855 14.7943 13.9888V14.0059C14.949 13.8357 15.1583 13.725 15.3861 13.6929C15.6139 13.6608 15.8457 13.7094 16.0414 13.8302C16.3671 14.0445 16.4485 14.3531 16.4271 14.6231C16.0454 15.2657 15.5283 15.8175 14.9118 16.2401C14.2953 16.6627 13.5942 16.946 12.8571 17.0702V18.8574ZM16.7143 12.0002C16.7143 12.2275 16.6239 12.4456 16.4632 12.6063C16.3025 12.767 16.0844 12.8574 15.8571 12.8574C15.6298 12.8574 15.4118 12.767 15.251 12.6063C15.0903 12.4456 15 12.2275 15 12.0002C15 11.7729 15.0903 11.5549 15.251 11.3941C15.4118 11.2334 15.6298 11.1431 15.8571 11.1431C16.0844 11.1431 16.3025 11.2334 16.4632 11.3941C16.6239 11.5549 16.7143 11.7729 16.7143 12.0002Z" fill="url(#paint1_linear_31_8472)"/>
</g>
<defs>
<linearGradient id="paint0_linear_31_8472" x1="4.46571" y1="4.16143" x2="29.2071" y2="32.58" gradientUnits="userSpaceOnUse">
<stop stop-color="#1A1E21"/>
<stop offset="1" stop-color="#06060A"/>
</linearGradient>
<linearGradient id="paint1_linear_31_8472" x1="7.14425" y1="6.91307" x2="17.3743" y2="15.2059" gradientUnits="userSpaceOnUse">
<stop stop-color="#FF5300"/>
<stop offset="1" stop-color="#FBB705"/>
</linearGradient>
<clipPath id="clip0_31_8472">
<rect width="24" height="24" fill="white"/>
</clipPath>
</defs>
</svg>

<svg xmlns="http://www.w3.org/2000/svg" width="24" height="24" fill="none" viewBox="0 0 24 24"><g clip-path="url(#a)"><path fill="url(#b)" d="M0 0h24v24H0z"/><path fill="url(#c)" d="M11.143 5.143c-3.386.429-6 3.334-6 6.857s2.614 6.429 6 6.857V17.07a5.143 5.143 0 0 1 0-10.14zm1.714 13.714c3.386-.428 6-3.334 6-6.857s-2.614-6.428-6-6.857V6.93a5.14 5.14 0 0 1 3.446 2.255c.055.278.004.694-.343.93a.94.94 0 0 1-1.089 0v.008a3.428 3.428 0 1 0-.077 3.866v.017a.985.985 0 0 1 1.247-.176.83.83 0 0 1 .386.793 5.15 5.15 0 0 1-3.57 2.447zM16.714 12A.857.857 0 1 1 15 12a.857.857 0 0 1 1.714 0"/></g><defs><linearGradient id="b" x1="4.466" x2="29.207" y1="4.161" y2="32.58" gradientUnits="userSpaceOnUse"><stop stop-color="#1A1E21"/><stop offset="1" stop-color="#06060A"/></linearGradient><linearGradient id="c" x1="7.144" x2="17.374" y1="6.913" y2="15.206" gradientUnits="userSpaceOnUse"><stop stop-color="#FF5300"/><stop offset="1" stop-color="#FBB705"/></linearGradient><clipPath id="a"><path fill="#fff" d="M0 0h24v24H0z"/></clipPath></defs></svg>
